icons/1_Primary/Hypixel.svg

<svg xmlns="http://www.w3.org/2000/svg" viewBox="0 0 1024 1024">
   <circle cx="512" cy="512" r="512" style="fill:#f4bc22"/>
   <path d="M654.41 224c-26.66 0-75.73 3.73-120.79 23.68v218.2h-53.09V268.82c-23.17 7.37-72 30.46-110.94 60.68 24.64 19.16 33.41 41.19 33.41 59.8v310.1l-11.79 9.89c21.42 61.56 43.69 98.36 88.39 140.71V535.58h52.14v224.36c55-38.37 75.65-65.11 87-97.8l-11.15-4.91V399.72c-.01-70.28 16.7-134.32 46.82-175.72Z" style="fill:#fff"/>
</svg>

<svg width="1024" height="1024" viewBox="0 0 1024 1024" fill="none" xmlns="http://www.w3.org/2000/svg">
<g clip-path="url(#clip0_2_2472)">
<path d="M512 1024C794.77 1024 1024 794.77 1024 512C1024 229.23 794.77 0 512 0C229.23 0 0 229.23 0 512C0 794.77 229.23 1024 512 1024Z" fill="#F9DE81"/>
<path d="M654.41 224C627.75 224 578.68 227.73 533.62 247.68V465.88H480.53V268.82C457.36 276.19 408.53 299.28 369.59 329.5C394.23 348.66 403 370.69 403 389.3V699.4L391.21 709.29C412.63 770.85 434.9 807.65 479.6 850V535.58H531.74V759.94C586.74 721.57 607.39 694.83 618.74 662.14L607.59 657.23V399.72C607.58 329.44 624.29 265.4 654.41 224Z" fill="white"/>
</g>
<defs>
<clipPath id="clip0_2_2472">
<rect width="1024" height="1024" fill="white"/>
</clipPath>
</defs>
</svg>
